!! 00000] TT[WS
!!!OTL: Wunu guandeng
!!!ARE: Asia, China, Shanxi Wutai
!! Ethnic Group: Han
!! WI, 171
!!!SCT: J0206
!!!YEM: Copyright 1995, estate of Helmut Schaffrath.
**kern
*ICvox
*Ivox
*M2/4
*k[f#c#g#]
*A:
{8r
8cc#
8cc#
8cc#
=1
8.cc#
16b
4cc#
=2
8cc#
8ee
8cc#
16cc#
16b
=3
8cc#
16cc#
16b
8f#
[8a
=4
4.a]
8ee}
=5
{8g#
8g#
8f#
16f#
16g#
=6
8f#
16f#
16e
8c#
8g#
=7
8.f#
16e
4c#
=8
16f#
16g#
16f#
16e
4c#}
=9
{8.cc#
16b
4cc#}
=10
{8cc#
8cc#
8cc#
16cc#
16b
=11
8.ee
16f#
4a
=12
8g#
8g#
16f#
16g#
16f#
16e
=13
8c#
8e
4c#}
=14
{8cc#
8cc#
8cc#
16cc#
16b
=15
8.ee
16f#
4a
=16
8g#
8g#
16f#
16g#
16f#
16e
=17
8c#
8e
4c#}
=18
{16f#
16g#
16f#
16e
4c#
=19
8.c#
16B
4c#}
=20
{8cc#
8cc#
8cc#
16cc#
16b
=21
8.ee
16f#
4a
=22
8g#
8g#
16f#
16g#
16f#
16e
=23
8c#
8e
4c#}
=24
{8cc#
8cc#
8cc#
16cc#
16b
=25
8.ee
16f#
4a
=26
8g#
8g#
16f#
16g#
16f#
16e
=27
8c#
8e
4c#}
=28
{8b
16b
16g#
8b
8g#
=29
8b
16b
16g#
8b
16b
16cc#
=30
8f#
4f#
8g#}
=31
{8b
4b
8cc#
=32
4ee
4ee
=33
8.cc#
16ee
8cc#
8cc#
=34
8b
8a
8.b
16cc#
=35
8.g#
16f#
8e
8f#
=36
8a
8c#
[4e
=37
2e]}
==
!!!AGN: Xiaodiao. Fengsuge, Qingge
!!!ONB: ESAC (Essen Associative Code) Database: CHINA
!!!AMT: simple duple
!!!AIN: vox
!!!EED: Helmut Schaffrath
!!!EEV: 1.0
*-
!!!ONB: Tied note syntax fixed by Craig Sapp, 2004/05/03/
